svg/u1f956.svg

<svg viewBox="0 0 128 128" xmlns="http://www.w3.org/2000/svg">
  <path d="M98.3,39.81l-55.45,60.78L4.46,115.31c0,0-1.48,3.31,1.58,6c2.57,2.27,6.25,1.14,7.84,0.57 s4.39,0.16,7.38,0.23c2.3,0.05,7.72-0.91,11.13-2.5s10-5.34,21.7-16.24s26.04-25.09,31.57-31.25C96.19,60.39,97.76,58,107,45.39 c7.22-9.86,11.39-18.15,13.32-22.35c1.93-4.2,4.66-9.77,4.09-13.06S121,6.11,121,6.11L98.3,39.81z" fill="#E38413"/>
  <radialGradient id="SVGID_1_" cx="47.5177" cy="49.9236" gradientTransform="matrix(0.7047 0.7095 -1.77 1.7578 102.4013 -71.5502)" gradientUnits="userSpaceOnUse" r="43.7662">
    <stop offset="0.445" stop-color="#DB8316"/>
    <stop offset="0.5392" stop-color="#DF8A1B"/>
    <stop offset="0.6715" stop-color="#E99C2A"/>
    <stop offset="0.7896" stop-color="#F6B23B"/>
  </radialGradient>
  <path d="M83.47,18.47c-7.67,5.49-19.39,17.04-33.3,32C33.25,68.66,15.7,89.71,12.28,95.9 c-5.2,9.41-4.15,11.42-5.5,14.26s-3.92,5.3-2.09,8.6c1.46,2.65,5.49,1.36,7.74,0.51c1.79-0.68,4.58-0.27,8.11-0.08 c6.11,0.32,13.48-2.43,22.05-9.34s31.03-29.54,46.51-46.38s29.72-41.93,32.3-47.24c2.58-5.31,3.02-6.16,3.02-7.08 c0-0.93-1.63-5.35-11.96-3.91S91.01,13.07,83.47,18.47z" fill="url(#SVGID_1_)"/>
  <radialGradient id="SVGID_2_" cx="99.251" cy="16.8628" gradientTransform="matrix(0.8 -0.6 0.3781 0.5041 13.4748 67.913)" gradientUnits="userSpaceOnUse" r="9.9187">
    <stop offset="0.0295" stop-color="#FBD8A9"/>
    <stop offset="1" stop-color="#FBD8A9" stop-opacity="0"/>
  </radialGradient>
  <path d="M102.2,8.52c-2.83,0.25-8.96,4.19-10.4,5.76c-4.59,5-1.41,10.03,2.5,10.16 c7.38,0.24,13.31-4.59,14.59-9.13C110.5,9.57,106.22,8.16,102.2,8.52z" fill="url(#SVGID_2_)"/>
  <radialGradient id="SVGID_3_" cx="76.352" cy="40.2412" gradientTransform="matrix(0.9934 -0.5282 0.4699 0.6456 -18.3399 54.592)" gradientUnits="userSpaceOnUse" r="13.4157">
    <stop offset="0.0966" stop-color="#FDE5BF"/>
    <stop offset="0.3702" stop-color="#FCE1B9" stop-opacity="0.7419"/>
    <stop offset="0.7158" stop-color="#FAD8A9" stop-opacity="0.4159"/>
    <stop offset="0.8428" stop-color="#FCE0B6" stop-opacity="0.2113"/>
    <stop offset="0.9739" stop-color="#FDE5BF" stop-opacity="0"/>
  </radialGradient>
  <path d="M75.15,28.12c-3.34,1.22-9.05,6.9-10.73,8.5c-4.01,3.84-6.83,15.41,5.78,16.1 c10.29,0.56,22.76-9.43,20.67-18.89C89.39,27.07,82.18,25.56,75.15,28.12z" fill="url(#SVGID_3_)"/>
  <radialGradient id="SVGID_4_" cx="47.5577" cy="72.7716" gradientTransform="matrix(0.7602 -0.7098 0.6856 0.612 -37.3292 62.3407)" gradientUnits="userSpaceOnUse" r="13.1">
    <stop offset="0.1883" stop-color="#FBD8A9"/>
    <stop offset="0.9773" stop-color="#FBD8A9" stop-opacity="0"/>
  </radialGradient>
  <path d="M49.76,60.67c-4.82,0.44-8.87,1.46-13.25,8.08c-5.79,8.75,0.17,17.01,8.23,17.38 c7.66,0.35,15.52-4.16,17.5-11.86C64.44,65.67,56.99,60.01,49.76,60.67z" fill="url(#SVGID_4_)"/>
  <radialGradient id="SVGID_5_" cx="24.1599" cy="100.1094" gradientTransform="matrix(0.7432 -0.6769 0.383 0.4125 -31.9877 75.1732)" gradientUnits="userSpaceOnUse" r="16.826">
    <stop offset="0" stop-color="#FDE5BF"/>
    <stop offset="1" stop-color="#FDE5BF" stop-opacity="0"/>
  </radialGradient>
  <path d="M28.04,86.6c-6.54,1.62-12.19,5.8-15.9,11.84C6.66,107.36,8.2,113,13.1,114.77 c4.9,1.78,19.65-5.34,25.09-15.01C44.64,88.28,36.17,84.58,28.04,86.6z" fill="url(#SVGID_5_)"/>
  <path d="M65.95,37.97c-0.6-1.2,2.48-4.16,6.37-7.51c3.89-3.36,11.76-8.56,18.65-10.17 c7.6-1.77,17.24-1.94,17.42-0.09c0.14,1.42-6.98,5.75-6.98,5.75L71.34,37.52C71.34,37.52,66.48,39.03,65.95,37.97z" fill="#CE701B"/>
  <path d="M86.2,27c-11.16,4.85-17.28,11.1-17.28,11.1s10.03,0.18,23.69-5.04 c7.38-2.82,14.57-11.19,14.57-11.19S96.98,22.32,86.2,27z" fill="#FDCE8C"/>
  <path d="M44.34,66.78c0,0-4.51,2.34-5.64,1.93c-1.13-0.4,0-2.18,1.29-4.19c0.93-1.45,6.64-8.4,12.96-12.2 c6.69-4.03,13.33-5.51,19.77-6.01c5.83-0.46,12.97,0.01,11.61,1.69c-1.5,1.84-3.11,3.65-3.11,3.65L44.34,66.78z" fill="#CE701B"/>
  <path d="M58.45,54.53c9.07-3.73,12.65-3.95,16.85-4.67c4.19-0.73,7.9-0.48,7.9-0.48s-2.2,2.71-4.86,5.21 c-2.66,2.5-6.01,5.06-7.62,5.54s-10.89,3.15-17.19,4.6c-5.32,1.22-12.65,3.6-12.65,3.6S48.86,58.48,58.45,54.53z" fill="#FDCE8C"/>
  <path d="M15.82,96.17c-0.19-1.15,6.06-10.66,15.08-15.52s19.85-4.61,22.57-4.55s5.26,0.35,5.09,1.56 s-1.45,1.85-1.45,1.85L17.85,96.58C17.85,96.58,16,97.22,15.82,96.17z" fill="#CE701B"/>
  <path d="M27.8,87.21c7.29-5.21,15.15-6.65,20.7-7.34c5.74-0.72,8.62-0.4,8.62-0.4s-3.95,4.4-6.08,6.13 c-1.94,1.58-5.74,4.54-7.51,5.26c-1.22,0.5-8.79,2.26-12.09,3.01s-13.82,2.78-13.82,2.78S19.55,93.1,27.8,87.21z" fill="#FDCE8C"/>
</svg>

<svg viewBox="0 0 128 128" xmlns="http://www.w3.org/2000/svg">
  <defs>
    <radialGradient id="SVGID_1_" cx="68.907304" cy="0.585721" gradientTransform="matrix(0.7047 0.7095 -1.77 1.7578 0 0)" gradientUnits="userSpaceOnUse" r="43.7662">
      <stop offset="0.445" stop-color="#DB8316"/>
      <stop offset="0.5392" stop-color="#DF8A1B"/>
      <stop offset="0.6715" stop-color="#E99C2A"/>
      <stop offset="0.7896" stop-color="#F6B23B"/>
    </radialGradient>
    <radialGradient id="SVGID_2_" cx="69.281059" cy="115.912662" gradientTransform="matrix(0.8 -0.6 0.3781 0.5041 0 0)" gradientUnits="userSpaceOnUse" r="9.9187">
      <stop offset="0.0295" stop-color="#FBD8A9"/>
      <stop offset="1" stop-color="#FBD8A9" stop-opacity="0"/>
    </radialGradient>
    <radialGradient id="SVGID_3_" cx="34.203237" cy="90.317134" gradientTransform="matrix(0.9934 -0.5282 0.4699 0.6456 0 0)" gradientUnits="userSpaceOnUse" r="13.4157">
      <stop offset="0.0966" stop-color="#FDE5BF"/>
      <stop offset="0.3702" stop-color="#FCE1B9" stop-opacity="0.7419"/>
      <stop offset="0.7158" stop-color="#FAD8A9" stop-opacity="0.4159"/>
      <stop offset="0.8428" stop-color="#FCE0B6" stop-opacity="0.2113"/>
      <stop offset="0.9739" stop-color="#FDE5BF" stop-opacity="0"/>
    </radialGradient>
    <radialGradient id="SVGID_4_" cx="-21.344017" cy="94.723008" gradientTransform="matrix(0.7602 -0.7098 0.6856 0.612 0 0)" gradientUnits="userSpaceOnUse" r="13.1">
      <stop offset="0.1883" stop-color="#FBD8A9"/>
      <stop offset="0.9773" stop-color="#FBD8A9" stop-opacity="0"/>
    </radialGradient>
    <radialGradient id="SVGID_5_" cx="-50.044019" cy="160.581078" gradientTransform="matrix(0.7432 -0.6769 0.383 0.4125 0 0)" gradientUnits="userSpaceOnUse" r="16.826">
      <stop offset="0" stop-color="#FDE5BF"/>
      <stop offset="1" stop-color="#FDE5BF" stop-opacity="0"/>
    </radialGradient>
  </defs>
  <path d="M98.3,39.81 L42.85,100.59 L4.46,115.31 C4.46,115.31 2.98,118.62 6.04,121.31 C8.61,123.58 12.29,122.45 13.88,121.88 C15.47,121.31 18.27,122.04 21.26,122.11 C23.56,122.16 28.98,121.2 32.39,119.61 C35.8,118.02 42.39,114.27 54.09,103.37 C65.79,92.47 80.13,78.28 85.66,72.12 C96.19,60.39 97.76,58 107,45.39 C114.22,35.53 118.39,27.24 120.32,23.04 C122.25,18.84 124.98,13.27 124.41,9.98 C123.84,6.69 121,6.11 121,6.11 L98.3,39.81 Z" fill="#E38413"/>
  <path d="M83.47,18.47 C75.8,23.96 64.08,35.51 50.17,50.47 C33.25,68.66 15.7,89.71 12.28,95.9 C7.08,105.31 8.13,107.32 6.78,110.16 C5.43,113 2.86,115.46 4.69,118.76 C6.15,121.41 10.18,120.12 12.43,119.27 C14.22,118.59 17.01,119 20.54,119.19 C26.65,119.51 34.02,116.76 42.59,109.85 C51.16,102.94 73.62,80.31 89.1,63.47 C104.58,46.63 118.82,21.54 121.4,16.23 C123.98,10.92 124.42,10.07 124.42,9.15 C124.42,8.22 122.79,3.8 112.46,5.24 C102.13,6.68 91.01,13.07 83.47,18.47 Z" fill="url(#SVGID_1_)"/>
  <path d="M102.2,8.52 C99.37,8.77 93.24,12.71 91.8,14.28 C87.21,19.28 90.39,24.31 94.3,24.44 C101.68,24.68 107.61,19.85 108.89,15.31 C110.5,9.57 106.22,8.16 102.2,8.52 Z" fill="url(#SVGID_2_)"/>
  <path d="M75.15,28.12 C71.81,29.34 66.1,35.02 64.42,36.62 C60.41,40.46 57.59,52.03 70.2,52.72 C80.49,53.28 92.96,43.29 90.87,33.83 C89.39,27.07 82.18,25.56 75.15,28.12 Z" fill="url(#SVGID_3_)"/>
  <path d="M49.76,60.67 C44.94,61.11 40.89,62.13 36.51,68.75 C30.72,77.5 36.68,85.76 44.74,86.13 C52.4,86.48 60.26,81.97 62.24,74.27 C64.44,65.67 56.99,60.01 49.76,60.67 Z" fill="url(#SVGID_4_)"/>
  <path d="M28.04,86.6 C21.5,88.22 15.85,92.4 12.14,98.44 C6.66,107.36 8.2,113 13.1,114.77 C18,116.55 32.75,109.43 38.19,99.76 C44.64,88.28 36.17,84.58 28.04,86.6 Z" fill="url(#SVGID_5_)"/>
  <path d="M65.95,37.97 C65.35,36.77 68.43,33.81 72.32,30.46 C76.21,27.1 84.08,21.9 90.97,20.29 C98.57,18.52 108.21,18.35 108.39,20.2 C108.53,21.62 101.41,25.95 101.41,25.95 L71.34,37.52 C71.34,37.52 66.48,39.03 65.95,37.97 Z" fill="#CE701B"/>
  <path d="M86.2,27 C75.04,31.85 68.92,38.1 68.92,38.1 C68.92,38.1 78.95,38.28 92.61,33.06 C99.99,30.24 107.18,21.87 107.18,21.87 C107.18,21.87 96.98,22.32 86.2,27 Z" fill="#FDCE8C"/>
  <path d="M44.34,66.78 C44.34,66.78 39.83,69.12 38.7,68.71 C37.57,68.31 38.7,66.53 39.99,64.52 C40.92,63.07 46.63,56.12 52.95,52.32 C59.64,48.29 66.28,46.81 72.72,46.31 C78.55,45.85 85.69,46.32 84.33,48 C82.83,49.84 81.22,51.65 81.22,51.65 L44.34,66.78 Z" fill="#CE701B"/>
  <path d="M58.45,54.53 C67.52,50.8 71.1,50.58 75.3,49.86 C79.49,49.13 83.2,49.38 83.2,49.38 C83.2,49.38 81,52.09 78.34,54.59 C75.68,57.09 72.33,59.65 70.72,60.13 C69.11,60.61 59.83,63.28 53.53,64.73 C48.21,65.95 40.88,68.33 40.88,68.33 C40.88,68.33 48.86,58.48 58.45,54.53 Z" fill="#FDCE8C"/>
  <path d="M15.82,96.17 C15.63,95.02 21.88,85.51 30.9,80.65 C39.92,75.79 50.75,76.04 53.47,76.1 C56.19,76.16 58.73,76.45 58.56,77.66 C58.39,78.87 57.11,79.51 57.11,79.51 L17.85,96.58 C17.85,96.58 16,97.22 15.82,96.17 Z" fill="#CE701B"/>
  <path d="M27.8,87.21 C35.09,82 42.95,80.56 48.5,79.87 C54.24,79.15 57.12,79.47 57.12,79.47 C57.12,79.47 53.17,83.87 51.04,85.6 C49.1,87.18 45.3,90.14 43.53,90.86 C42.31,91.36 34.74,93.12 31.44,93.87 C28.14,94.62 17.62,96.65 17.62,96.65 C17.62,96.65 19.55,93.1 27.8,87.21 Z" fill="#FDCE8C"/>
</svg>
